src/24/actions/align-horizontal-node.svg

<svg xmlns="http://www.w3.org/2000/svg" width="24" height="24" viewBox="0 0 24 24">
 <defs>
  <style id="current-color-scheme" type="text/css">
   .ColorScheme-Text { color:#565656; } .ColorScheme-Highlight { color:#5294e2; }
  </style>
 </defs>
 <path style="fill:currentColor" class="ColorScheme-Text" d="M 0.4921875 -0.001953125 L 0.4921875 0 A 0.49975 0.49977 0 0 0 0.12890625 0.83007812 C 1.0354762 1.8880781 2.6789219 2.3993 4.6074219 2.8125 C 5.9737219 3.1051 7.4878937 3.3303937 8.9960938 3.5585938 L 8.9960938 6.0039062 L 11.001953 6.0039062 L 11.001953 9.0039062 L 8.9960938 9.0039062 L 8.9960938 10.443359 C 8.9920938 10.444059 8.988374 10.443359 8.984375 10.443359 C 6.874975 10.789759 4.756325 11.242153 3.078125 12.126953 C 1.399825 13.011753 0.14666563 14.410091 0.009765625 16.462891 C -0.044224375 17.277991 0.25760875 18.003862 0.79296875 18.539062 C 1.3283387 19.074363 2.0677125 19.445128 2.9453125 19.736328 C 4.5643125 20.273528 6.6919937 20.535494 8.9960938 20.746094 L 8.9960938 22.998047 L 11.001953 22.998047 L 11.001953 23.994141 L 11.501953 23.994141 L 12.001953 23.994141 L 12.001953 23.494141 L 12.001953 22.998047 L 13.994141 22.998047 L 13.994141 21.191406 C 17.698241 21.554006 21.238544 22.092256 23.214844 23.410156 A 0.49998 0.49999 0 1 0 23.769531 22.578125 C 21.442731 21.026525 17.753141 20.501462 13.994141 20.164062 L 13.994141 18 L 12.001953 18 L 12.001953 14 L 13.994141 14 L 13.994141 10.660156 C 14.348541 10.592156 14.702167 10.524312 15.029297 10.445312 C 15.878487 10.240012 16.627622 9.9920656 17.232422 9.6347656 C 17.837272 9.2775656 18.317622 8.7799937 18.482422 8.1210938 C 18.691572 7.2837938 18.590619 6.5078531 18.224609 5.8769531 C 17.858499 5.2459531 17.261346 4.771225 16.541016 4.390625 C 15.812976 4.006025 14.945241 3.7079906 13.994141 3.4628906 L 13.994141 1.0039062 L 12.001953 1.0039062 L 12.001953 0.50390625 L 12.001953 0.00390625 L 11.001953 0.00390625 L 11.001953 0.50390625 L 11.001953 1.0039062 L 8.9960938 1.0039062 L 8.9960938 2.5449219 C 7.5367938 2.3233219 6.0899062 2.1048312 4.8164062 1.8320312 C 2.9547063 1.4332313 1.4809719 0.86903437 0.88867188 0.17773438 A 0.49975 0.49977 0 0 0 0.4921875 -0.001953125 z M 13.994141 4.5136719 C 14.792971 4.7326719 15.511619 4.9801438 16.074219 5.2773438 C 16.690069 5.6027437 17.122775 5.9730594 17.359375 6.3808594 C 17.596015 6.7886594 17.670979 7.2434594 17.511719 7.8808594 C 17.426739 8.2214594 17.187299 8.5040437 16.724609 8.7773438 C 16.261829 9.0506438 15.592922 9.2836625 14.794922 9.4765625 C 14.546262 9.5365625 14.265621 9.5887781 13.994141 9.6425781 L 13.994141 9.0039062 L 12.001953 9.0039062 L 12.001953 6.0039062 L 13.994141 6.0039062 L 13.994141 4.5136719 z M 8.9960938 11.458984 L 8.9960938 14.001953 L 11.001953 14.001953 L 11.001953 18.001953 L 8.9960938 18.001953 L 8.9960938 19.742188 C 6.7477937 19.533087 4.7002656 19.269016 3.2597656 18.791016 C 2.4682656 18.528316 1.8651469 18.200984 1.4980469 17.833984 C 1.1309369 17.466984 0.9707125 17.08755 1.0078125 16.53125 C 1.1207825 14.83575 2.0535219 13.798019 3.5449219 13.011719 C 4.9999219 12.244519 6.9736937 11.796984 8.9960938 11.458984 z"/>
</svg>

<svg xmlns="http://www.w3.org/2000/svg" width="24" height="24"><defs><style id="current-color-scheme" type="text/css"></style></defs><path d="M.492-.002V0A.5.5 0 0 0 .13.83c.906 1.058 2.55 1.57 4.478 1.982 1.367.293 2.88.518 4.39.747v2.445h2.005v3H8.996v1.44h-.012c-2.109.346-4.228.798-5.906 1.683S.147 14.41.01 16.463a2.645 2.645 0 0 0 .783 2.076c.535.535 1.275.906 2.152 1.197 1.62.538 3.747.8 6.051 1.01v2.252h2.006v.996h1v-.996h1.992v-1.807c3.704.363 7.245.901 9.22 2.22a.5.5 0 1 0 .556-.833c-2.327-1.551-6.017-2.077-9.776-2.414V18h-1.992v-4h1.992v-3.34c.355-.068.708-.136 1.035-.215.85-.205 1.599-.453 2.203-.81.605-.357 1.086-.855 1.25-1.514.21-.837.109-1.613-.257-2.244-.367-.631-.964-1.106-1.684-1.486-.728-.385-1.596-.683-2.547-.928v-2.46h-1.992v-1h-1v1H8.996v1.542c-1.46-.222-2.906-.44-4.18-.713C2.955 1.433 1.481.869.89.178a.5.5 0 0 0-.397-.18zm13.502 4.516c.799.219 1.518.466 2.08.763.616.326 1.049.696 1.285 1.104.237.408.312.862.153 1.5-.085.34-.325.623-.787.896-.463.274-1.132.507-1.93.7-.249.06-.53.112-.8.166v-.64h-1.993v-3h1.992v-1.49zm-4.998 6.945v2.543h2.006v4H8.996v1.74c-2.248-.209-4.296-.473-5.736-.951-.792-.263-1.395-.59-1.762-.957s-.527-.746-.49-1.303c.113-1.695 1.046-2.733 2.537-3.52C5 12.246 6.974 11.798 8.996 11.46z" fill="currentColor" color="#565656"/></svg>
